flaticon/hand-gestures/fingers-9.svg

<svg xmlns="http://www.w3.org/2000/svg" width="32" height="32" viewBox="0 0 24 24">
    <path d="M 18.40625 8.414062 C 18.046875 8.414062 17.683594 8.535156 17.402344 8.773438 L 17.402344 2.804688 C 17.402344 1.84375 16.644531 0.800781 15.601562 0.800781 C 15.160156 0.800781 14.800781 1 14.480469 1.28125 C 14.199219 0.601562 13.558594 0 12.796875 0 C 12.394531 0 11.953125 0.199219 11.632812 0.519531 C 11.234375 0.882812 10.992188 1.441406 10.992188 1.964844 C 10.710938 1.761719 10.351562 1.601562 9.992188 1.601562 C 8.949219 1.601562 8.1875 2.644531 8.1875 3.605469 L 8.1875 10.496094 C 7.828125 9.734375 7.347656 9.015625 6.867188 8.535156 C 6.226562 7.894531 4.941406 7.851562 4.222656 8.453125 C 4.023438 8.65625 3.339844 9.375 4.261719 10.65625 C 5.101562 11.859375 5.785156 14.503906 5.785156 16.027344 C 5.785156 19.230469 7.867188 20.675781 8.589844 21.074219 L 8.589844 23.597656 C 8.589844 23.839844 8.75 24 8.988281 24 C 9.230469 24 9.390625 23.839844 9.390625 23.597656 L 9.390625 20.835938 C 9.390625 20.675781 9.308594 20.554688 9.148438 20.472656 C 9.03125 20.433594 6.585938 19.273438 6.585938 16.027344 C 6.585938 14.542969 5.945312 11.621094 4.902344 10.175781 C 4.621094 9.816406 4.382812 9.335938 4.742188 9.054688 C 5.144531 8.734375 5.945312 8.734375 6.304688 9.09375 C 7.308594 10.097656 8.1875 12.21875 8.1875 13.222656 C 8.1875 13.460938 8.347656 13.621094 8.589844 13.621094 C 8.828125 13.621094 8.988281 13.460938 8.988281 13.222656 L 8.988281 3.605469 C 8.988281 3.046875 9.429688 2.402344 9.992188 2.402344 C 10.550781 2.402344 10.992188 3.046875 10.992188 3.605469 L 10.992188 10.816406 C 10.992188 11.058594 11.152344 11.21875 11.394531 11.21875 C 11.632812 11.21875 11.792969 11.058594 11.792969 10.816406 L 11.792969 2.003906 C 11.792969 1.683594 11.953125 1.320312 12.195312 1.082031 C 12.355469 0.921875 12.597656 0.800781 12.796875 0.800781 C 13.355469 0.800781 13.796875 1.441406 13.796875 2.003906 L 13.796875 11.21875 C 13.796875 11.460938 13.957031 11.621094 14.199219 11.621094 C 14.4375 11.621094 14.597656 11.460938 14.597656 11.21875 L 14.597656 2.804688 C 14.597656 2.242188 15.039062 1.601562 15.601562 1.601562 C 16.160156 1.601562 16.601562 2.242188 16.601562 2.804688 L 16.601562 10.335938 C 16.601562 10.378906 16.601562 10.378906 16.601562 10.417969 L 16.601562 12.019531 C 16.601562 12.261719 16.761719 12.421875 17.003906 12.421875 C 17.242188 12.421875 17.402344 12.261719 17.402344 12.019531 L 17.402344 10.378906 C 17.445312 9.816406 17.882812 9.214844 18.40625 9.214844 C 18.964844 9.214844 19.40625 9.855469 19.40625 10.417969 L 19.40625 16.027344 C 19.40625 19.070312 19.40625 19.070312 18.285156 20.59375 C 18.203125 20.675781 18.203125 20.792969 18.203125 20.875 L 18.203125 23.597656 C 18.203125 23.839844 18.367188 24 18.605469 24 C 18.847656 24 19.007812 23.839844 19.007812 23.597656 L 19.007812 20.953125 C 20.207031 19.351562 20.207031 19.152344 20.207031 16.027344 L 20.207031 10.417969 C 20.207031 9.457031 19.449219 8.414062 18.40625 8.414062 Z M 18.40625 8.414062"/>
    <path d="M14.199219 20.394531C14.4375 20.394531 14.597656 20.234375 14.597656 19.992188 14.597656 19.753906 14.4375 19.59375 14.199219 19.59375L12.996094 19.59375C12.757812 19.59375 12.597656 19.753906 12.597656 19.992188 12.597656 20.234375 12.757812 20.394531 12.996094 20.394531zM14.597656 21.195312L12.597656 21.195312C12.355469 21.195312 12.195312 21.355469 12.195312 21.597656 12.195312 21.835938 12.355469 21.996094 12.597656 21.996094L14.597656 21.996094C14.839844 21.996094 15 21.835938 15 21.597656 15 21.355469 14.839844 21.195312 14.597656 21.195312zM14.597656 21.195312"/>
</svg>

<svg xmlns="http://www.w3.org/2000/svg" width="32" height="32" viewBox="0 0 24 24">
    <path d="M18.406 8.414c-.36 0-.722.121-1.004.36v-5.97c0-.96-.757-2.003-1.8-2.003-.442 0-.801.199-1.122.48C14.2.601 13.56 0 12.797 0c-.402 0-.844.2-1.164.52-.399.363-.64.921-.64 1.445-.282-.203-.641-.363-1-.363-1.044 0-1.806 1.043-1.806 2.003v6.891c-.359-.762-.84-1.48-1.32-1.96-.64-.641-1.926-.684-2.644-.083-.2.203-.883.922.039 2.203.84 1.203 1.523 3.848 1.523 5.371 0 3.203 2.082 4.649 2.805 5.047v2.524c0 .242.16.402.398.402.242 0 .403-.16.403-.402v-2.762c0-.16-.082-.281-.243-.363-.117-.04-2.562-1.2-2.562-4.446 0-1.484-.64-4.406-1.684-5.851-.28-.36-.52-.84-.16-1.121.403-.32 1.203-.32 1.563.039 1.004 1.004 1.883 3.125 1.883 4.129 0 .238.16.398.402.398.238 0 .398-.16.398-.398V3.605c0-.558.442-1.203 1.004-1.203.559 0 1 .645 1 1.203v7.211c0 .243.16.403.403.403.238 0 .398-.16.398-.403V2.004c0-.32.16-.684.402-.922.16-.16.403-.281.602-.281.558 0 1 .64 1 1.203v9.215c0 .242.16.402.402.402.239 0 .399-.16.399-.402V2.805c0-.563.441-1.203 1.004-1.203.558 0 1 .64 1 1.203v9.215c0 .242.16.402.402.402.238 0 .398-.16.398-.402v-1.641c.043-.563.48-1.164 1.004-1.164.559 0 1 .64 1 1.203v5.61c0 3.042 0 3.042-1.12 4.566-.083.082-.083.199-.083.281v2.723c0 .242.164.402.402.402.243 0 .403-.16.403-.402v-2.645c1.199-1.601 1.199-1.8 1.199-4.926v-5.609c0-.961-.758-2.004-1.8-2.004zm0 0"/>
    <path d="M14.2 20.395c.238 0 .398-.16.398-.403 0-.238-.16-.398-.399-.398h-1.203c-.238 0-.398.16-.398.398 0 .242.16.403.398.403zm0 0M14.598 21.195h-2c-.243 0-.403.16-.403.403 0 .238.16.398.403.398h2c.242 0 .402-.16.402-.398 0-.243-.16-.403-.402-.403zm0 0"/>
</svg>
